Pods/ProtonCore-UIFoundations/libraries/UIFoundations/Sources/Assets.xcassets/Images/IconSet/ic-arrow-up-and-left.imageset/ic-arrow-up-and-left.svg

<svg width="24" height="24" viewBox="0 0 24 24" fill="none" xmlns="http://www.w3.org/2000/svg">
<path d="M3.95916 11.2475L8.76944 6.53542C9.06534 6.24557 9.07015 5.77081 8.78018 5.47502C8.49021 5.17924 8.01527 5.17443 7.71937 5.46429L1.81515 11.2479C1.39506 11.6595 1.39493 12.3356 1.81488 12.7473L7.71918 18.5352C8.01497 18.8252 8.48991 18.8206 8.77999 18.5249C9.07007 18.2292 9.06543 17.7544 8.76964 17.4645L3.95783 12.7475H18.7452C19.9878 12.7475 20.9952 13.7548 20.9952 14.9975V18.7499C20.9952 19.1641 21.331 19.4999 21.7452 19.4999C22.1594 19.4999 22.4952 19.1641 22.4952 18.7499V14.9975C22.4952 12.9264 20.8162 11.2475 18.7452 11.2475H3.95916Z" fill="#0C0C14"/>
</svg>

<svg xmlns="http://www.w3.org/2000/svg" width="24" height="24" viewBox="0 0 24 24">
  <g class="ic-arrow-up-and-left">
    <path d="m3.96 11.248 4.81-4.713a.75.75 0 1 0-1.05-1.07l-5.905 5.783a1.05 1.05 0 0 0 0 1.5l5.904 5.787a.75.75 0 0 0 1.05-1.07l-4.811-4.717h14.787a2.25 2.25 0 0 1 2.25 2.25v3.752a.75.75 0 0 0 1.5 0v-3.752a3.75 3.75 0 0 0-3.75-3.75H3.96Z" class="Icon"/>
  </g>
</svg>
